X:134
T:Done Gone
C:arranged by Andy Falco
N:Transcribed by Richard A Taylor
R:bluegrass
L:1/8
Q:1/4=120
M:4/4
K:G
z6 GA |: "G"BA GE D2 DE | GA BG e2 d2 | g2 eg de ge | de dB "D"A2 GA | "G"BA GE D2 DE | 
GA BG e2 d2 | g2 eg de ge |1 dc BA G2 GA :|2 dc BA G2 D^D |: "Em"E2 [B2E2B,2] E2 [B2E2B,2] | 
EF GA [eA]B [eB][eB] | "B7"[eA]B [eB][eB] [eA]B [e2B2] | Bc BA GA GF | "Em"E2 [B2E2B,2] E2 [B2E2B,2] | 
EF GA [eA]B [e2B2] | "B7"Bc BA GA GF |1 E"Em"D B,D E2 D^D :|2 ED B,C D4 | [g8B8G8D8] | 
z8 | z8 | z8 | z8 | 


